assets/logo-white.svg

<svg width="323" height="209" viewBox="0 0 323 209" fill="none" xmlns="http://www.w3.org/2000/svg">
<path d="M60.3613 86.9013H48.9466V110.687H60.3613V86.9013ZM69.7786 112.881C69.7786 116.765 67.8773 118.708 64.0733 118.708H48.9466V141.336H39.6093V78.8799H64.0733C67.8773 78.8799 69.7786 80.7959 69.7786 84.6266V112.881Z" fill="white"/>
<path d="M198.461 87.2934H187.048V111.077H198.461V87.2934ZM207.879 113.273C207.879 117.157 205.976 119.1 202.173 119.1H187.048V141.728H177.709V79.272H202.173C205.976 79.272 207.879 81.188 207.879 85.0187V113.273Z" fill="white"/>
<path d="M90.14 131.742V120.927H81.4V132.061L90.14 131.742ZM98.8 139.005H90.06V137.607C87.9853 137.929 85.9106 138.247 83.8346 138.566C81.1213 138.965 79.0586 139.165 77.6493 139.165C74.324 139.165 72.6613 137.529 72.6613 134.257V119.73C72.6613 116.403 74.376 114.741 77.808 114.741H90.14V105.483H81.4V111.229H73.14V103.686C73.14 100.361 74.856 98.6981 78.288 98.6981H93.732C97.1106 98.6981 98.8 100.361 98.8 103.686V139.005Z" fill="white"/>
<path d="M149.803 139.005H140.744V106.32L132.164 106.48V139.005H123.064V106.32L114.484 106.48V139.005H105.345V98.6985H114.484V100.174C116.612 99.8291 118.728 99.4825 120.829 99.1371C123.411 98.7385 125.552 98.5385 127.255 98.5385C129.356 98.5385 130.713 99.1371 131.325 100.334C133.56 99.9891 135.795 99.6291 138.029 99.2571C140.983 98.7785 143.244 98.5385 144.813 98.5385C148.14 98.5385 149.803 100.174 149.803 103.448V139.005Z" fill="white"/>
<path d="M228.24 132.018V121.204H219.498V132.337L228.24 132.018ZM236.9 139.281H228.158V137.884C226.085 138.205 224.009 138.524 221.934 138.842C219.22 139.241 217.157 139.441 215.748 139.441C212.422 139.441 210.76 137.805 210.76 134.533V120.005C210.76 116.68 212.476 115.017 215.908 115.017H228.24V105.76H219.498V111.505H211.238V103.962C211.238 100.637 212.954 98.9743 216.386 98.9743H231.83C235.21 98.9743 236.9 100.637 236.9 103.962V139.281Z" fill="white"/>
<path d="M287.901 139.281H278.842V106.596L270.262 106.756V139.281H261.162V106.596L252.584 106.756V139.281H243.444V98.9746H252.584V100.451C254.71 100.105 256.826 99.7586 258.929 99.4133C261.509 99.0146 263.652 98.8146 265.353 98.8146C267.456 98.8146 268.813 99.4133 269.425 100.611C271.658 100.265 273.893 99.9053 276.129 99.5333C279.082 99.0546 281.342 98.8146 282.913 98.8146C286.238 98.8146 287.901 100.451 287.901 103.724V139.281Z" fill="white"/>
<path d="M89.3815 78.0254C89.6108 78.0254 89.8881 77.9908 90.2108 77.9201C91.0401 77.7361 91.5001 77.3321 91.5921 76.7121L91.7655 75.6068C92.1788 73.4641 92.3868 71.9441 92.3868 71.0454C92.3868 70.6548 92.3401 70.4588 92.2495 70.4588C92.0428 70.4588 91.2695 71.8041 89.9348 74.5001C89.1041 76.2268 88.6895 77.3108 88.6895 77.7481C88.6895 77.9321 88.9215 78.0254 89.3815 78.0254ZM95.4961 91.1521C94.9895 91.1521 94.5055 90.9214 94.0455 90.4614C93.2855 89.6321 92.7375 88.5788 92.4055 87.3001C92.0708 86.0228 91.8228 84.7948 91.6615 83.6201C91.5228 82.7454 91.3788 82.0374 91.2295 81.4961C91.0801 80.9561 90.8788 80.6841 90.6255 80.6841C89.5428 80.6841 88.6561 80.7988 87.9655 81.0294C87.2735 81.2601 86.8135 81.8708 86.5841 82.8601C86.5148 83.1828 86.4561 83.6094 86.4108 84.1388C86.1575 86.0268 85.8921 87.0628 85.6161 87.2481C85.4308 87.3868 85.2241 87.4548 84.9935 87.4548C84.6481 87.4548 84.2681 87.3041 83.8548 87.0068C83.0721 86.4774 82.6801 85.8201 82.6801 85.0388C82.6801 84.6681 82.7655 84.2548 82.9388 83.7934C83.1108 83.3334 83.1975 82.9868 83.1975 82.7561C83.1975 82.5041 83.0721 82.3774 82.8175 82.3774C82.6095 82.3774 82.1721 82.5214 81.5055 82.8081C80.8361 83.0988 80.4108 83.2401 80.2255 83.2401C79.8815 83.2401 79.5415 83.0388 79.2068 82.6361C78.8748 82.2334 78.7068 81.7788 78.7068 81.2721C78.7068 80.7428 79.0001 80.3334 79.5868 80.0454C80.1748 79.7588 80.9401 79.5214 81.8855 79.3361C83.4975 78.9921 84.5788 78.5654 85.1321 78.0574L92.3868 62.8934C93.0095 61.6721 93.9295 61.0614 95.1508 61.0614C95.5881 61.0614 96.0495 61.1321 96.5321 61.2694C97.3388 61.5454 97.7428 61.9588 97.7428 62.5121C97.7428 62.9961 97.6268 63.5961 97.3961 64.3081C95.6001 70.9428 94.7015 76.3094 94.7015 80.4068C94.7015 84.6681 95.2428 87.7094 96.3255 89.5268C96.5561 89.8961 96.6708 90.1614 96.6708 90.3228C96.6708 90.5068 96.5441 90.6908 96.2908 90.8761C96.0375 91.0601 95.7721 91.1521 95.4961 91.1521" fill="white"/>
<path d="M102.959 90.1504C102.774 90.1504 102.59 90.1051 102.406 90.0117C101.415 89.5731 100.759 88.9291 100.436 88.0771C99.8829 86.6037 99.6069 84.2891 99.6069 81.1344C99.6069 77.5171 100.092 73.0957 101.059 67.8677C101.104 67.5451 101.128 67.3037 101.128 67.1411C101.128 66.9344 101.035 66.8317 100.851 66.8317C100.483 66.8317 100.056 66.9344 99.5736 67.1411C98.9509 67.3957 98.1096 67.5224 97.0509 67.5224C96.6136 67.5224 96.1416 67.1077 95.6349 66.2784C95.4283 65.9317 95.3229 65.6104 95.3229 65.3104C95.3229 64.7344 95.7856 64.3891 96.7056 64.2731L101.162 63.6877C101.692 63.6184 102.048 63.2611 102.234 62.6171L104.582 54.3931C104.836 53.4957 105.284 53.0477 105.93 53.0477C106.136 53.0477 106.378 53.0931 106.655 53.1851C107.554 53.5304 108.003 54.0384 108.003 54.7051C108.003 54.9344 107.946 55.2117 107.83 55.5344C107.392 56.7091 106.828 58.3797 106.136 60.5437C105.722 61.8117 105.515 62.5357 105.515 62.7184C105.538 63.1104 105.86 63.3064 106.482 63.3064L108.383 63.2717C108.819 63.2717 109.326 63.3064 109.903 63.3757C110.479 63.4464 111.147 63.7224 111.906 64.2064C112.667 64.6891 113.058 65.2077 113.082 65.7611C113.082 65.9917 113.023 66.2331 112.908 66.4851C112.723 66.8317 112.494 67.0037 112.216 67.0037C111.94 67.0037 111.63 66.9117 111.286 66.7277C110.684 66.4291 109.707 66.2784 108.348 66.2784C106.022 66.2784 104.778 66.4611 104.618 66.8317C104.524 67.0144 104.444 67.2451 104.375 67.5224C103.315 72.2904 102.786 77.1717 102.786 82.1704C102.786 83.9664 102.89 85.4384 103.098 86.5931C103.235 87.3531 103.556 88.0997 104.064 88.8371C104.18 88.9984 104.236 89.1357 104.236 89.2517C104.236 89.3904 104.18 89.5384 104.064 89.7024C103.834 89.9784 103.466 90.1264 102.959 90.1504Z" fill="white"/>
<path d="M109.35 78.646C109.948 78.2313 110.524 77.5073 111.076 76.4686C111.906 74.9486 112.32 74.006 112.32 73.6353C112.32 73.4526 112.206 73.3593 111.975 73.3593C111.814 73.3593 111.687 73.418 111.595 73.534C109.868 76.4806 109.004 78.0713 109.004 78.2993C109.004 78.4846 109.119 78.5993 109.35 78.646ZM110.662 85.9006C107.162 85.9006 105.411 84.2766 105.411 81.03C105.411 80.7313 105.475 80.05 105.6 78.9913C105.727 77.9313 106.216 76.5513 107.068 74.846C108.612 71.8046 110.259 70.2846 112.01 70.2846C113.436 70.2846 114.519 70.9993 115.256 72.4273C115.487 72.866 115.602 73.3273 115.602 73.81C115.602 74.4086 115.43 75.0313 115.084 75.6753C113.103 78.5993 111.238 80.4766 109.488 81.306C108.866 81.6046 108.555 81.9166 108.555 82.238C108.555 82.378 108.578 82.514 108.623 82.654C108.831 83.39 109.246 83.758 109.868 83.758C110.788 83.758 112.02 83.194 113.563 82.066C114.576 81.33 115.303 80.7646 115.74 80.3726C116.294 79.822 116.731 79.5446 117.054 79.5446C117.214 79.5446 117.376 79.602 117.538 79.7166C117.79 79.9486 117.916 80.2353 117.916 80.582C117.916 80.95 117.682 81.4913 117.208 82.2033C116.738 82.918 115.964 83.6793 114.894 84.4846C113.822 85.29 112.862 85.7393 112.01 85.8313C111.526 85.878 111.076 85.9006 110.662 85.9006Z" fill="white"/>
<path d="M121.371 87.8359C119.62 87.8359 118.491 86.9959 117.986 85.3119C117.663 84.2999 117.502 83.0679 117.502 81.6173C117.502 79.1773 117.991 76.0959 118.971 72.3746C119.95 68.6559 120.923 64.9426 121.89 61.2333C122.119 60.3586 122.592 59.9213 123.306 59.9213C123.514 59.9213 123.743 59.9666 123.996 60.0599C124.55 60.2679 124.826 60.6453 124.826 61.1986C124.826 61.4533 124.78 61.7519 124.688 62.0986C121.992 72.4173 120.646 79.4186 120.646 83.1026C120.646 84.8293 120.956 85.6933 121.579 85.6933C122.384 85.6933 124.078 84.4853 126.658 82.0666C126.679 82.0666 126.691 82.0559 126.691 82.0306C126.944 81.8013 127.21 81.6746 127.486 81.6519C127.647 81.6519 127.808 81.7199 127.97 81.8599C128.13 81.9973 128.212 82.1706 128.212 82.3773C128.212 82.6079 128.13 82.8613 127.97 83.1373C126.127 86.2679 123.928 87.8359 121.371 87.8359Z" fill="white"/>
<path d="M130.976 72.7037L130.492 72.669C129.847 72.5317 129.501 72.105 129.455 71.3917V70.701C129.455 69.8703 129.824 68.537 130.561 66.693L130.733 66.209C130.917 65.7717 131.264 65.5397 131.769 65.5183C132.001 65.5183 132.231 65.565 132.461 65.6557C133.244 66.0023 133.647 66.4157 133.671 66.8983C133.671 67.4063 133.083 69.1117 131.908 72.013C131.701 72.473 131.391 72.7037 130.976 72.7037ZM129.871 86.625H129.767C128.592 86.625 127.959 85.8303 127.865 84.2437C127.82 83.4597 127.797 82.6997 127.797 81.961C127.797 79.177 128.075 76.597 128.627 74.2237C128.787 73.5557 129.227 73.2223 129.94 73.2223C131.183 73.2223 131.805 73.7183 131.805 74.7063C131.805 74.9837 131.781 75.2383 131.736 75.4663C131.16 78.393 130.804 81.3623 130.665 84.381C130.665 84.6357 130.693 84.8637 130.751 85.0703C130.809 85.2797 130.837 85.497 130.837 85.729C130.837 85.9117 130.82 86.0957 130.785 86.281C130.751 86.4637 130.447 86.5797 129.871 86.625" fill="white"/>
<path d="M136.986 78.646C137.585 78.2313 138.161 77.5073 138.714 76.4686C139.542 74.9486 139.958 74.006 139.958 73.6353C139.958 73.4526 139.842 73.3593 139.613 73.3593C139.45 73.3593 139.324 73.418 139.233 73.534C137.505 76.4806 136.641 78.0713 136.641 78.2993C136.641 78.4846 136.756 78.5993 136.986 78.646ZM138.3 85.9006C134.798 85.9006 133.048 84.2766 133.048 81.03C133.048 80.7313 133.112 80.05 133.238 78.9913C133.365 77.9313 133.853 76.5513 134.706 74.846C136.249 71.8046 137.896 70.2846 139.646 70.2846C141.074 70.2846 142.156 70.9993 142.893 72.4273C143.125 72.866 143.24 73.3273 143.24 73.81C143.24 74.4086 143.066 75.0313 142.721 75.6753C140.74 78.5993 138.874 80.4766 137.125 81.306C136.504 81.6046 136.192 81.9166 136.192 82.238C136.192 82.378 136.214 82.514 136.261 82.654C136.468 83.39 136.884 83.758 137.505 83.758C138.426 83.758 139.658 83.194 141.201 82.066C142.214 81.33 142.94 80.7646 143.378 80.3726C143.93 79.822 144.368 79.5446 144.69 79.5446C144.85 79.5446 145.013 79.602 145.174 79.7166C145.428 79.9486 145.554 80.2353 145.554 80.582C145.554 80.95 145.318 81.4913 144.846 82.2033C144.374 82.918 143.602 83.6793 142.532 84.4846C141.46 85.29 140.498 85.7393 139.646 85.8313C139.162 85.878 138.714 85.9006 138.3 85.9006Z" fill="white"/>
<path d="M147.247 85.6934C146.579 85.6934 146.003 85.4734 145.52 85.0387C145.265 84.7827 145.139 84.44 145.139 84.0014C145.668 79.304 146.176 75.4214 146.659 72.3574C146.775 71.7134 147.12 71.3907 147.695 71.3907C149.101 71.3907 149.803 72.0254 149.803 73.292C149.803 73.5227 149.745 73.832 149.631 74.2227C149.493 74.7067 149.423 75.144 149.423 75.536C149.423 75.8827 149.469 76.0547 149.561 76.0547C149.631 76.0547 149.711 75.964 149.803 75.7774C150.309 74.672 151.255 73.8214 152.636 73.2214C153.073 73.0147 153.511 72.9107 153.948 72.9107C154.34 72.9107 154.663 73.1174 154.916 73.5334C155.055 73.74 155.123 73.9254 155.123 74.0867C155.123 74.3627 154.859 74.6267 154.329 74.8814C154.191 74.948 154.075 75.0187 153.984 75.088C151.243 77.1854 149.445 80.1787 148.593 84.0694C148.34 85.1507 147.891 85.6934 147.247 85.6934Z" fill="white"/>
<path d="M321.929 208.544H0.669312V0.669283H321.929V208.544Z" stroke="#1D1D1B" stroke-width="0.25" stroke-miterlimit="10"/>
</svg>

<svg fill="none" height="209" viewBox="0 0 323 209" width="323" xmlns="http://www.w3.org/2000/svg"><g fill="#fff"><path d="M60.361 86.901H48.947v23.786H60.36zm9.418 25.98c0 3.884-1.902 5.827-5.706 5.827H48.947v22.628h-9.338V78.88h24.464c3.804 0 5.706 1.916 5.706 5.747zM198.46 87.293h-11.413v23.784h11.413zm9.418 25.98c0 3.884-1.903 5.827-5.706 5.827h-15.125v22.628h-9.339V79.272h24.464c3.803 0 5.706 1.916 5.706 5.747zM90.14 131.742v-10.815H81.4v11.134zm8.66 7.263h-8.74v-1.398c-2.075.322-4.15.64-6.225.959-2.714.399-4.776.599-6.186.599-3.325 0-4.988-1.636-4.988-4.908V119.73c0-3.327 1.715-4.989 5.147-4.989H90.14v-9.258H81.4v5.746h-8.26v-7.543c0-3.325 1.716-4.988 5.148-4.988h15.444c3.379 0 5.068 1.663 5.068 4.988zm51.003 0h-9.059V106.32l-8.58.16v32.525h-9.1V106.32l-8.58.16v32.525h-9.139V98.699h9.139v1.475c2.128-.345 4.244-.692 6.345-1.037 2.582-.399 4.723-.599 6.426-.599 2.101 0 3.458.6 4.07 1.796 2.235-.345 4.47-.705 6.704-1.077 2.954-.479 5.215-.719 6.784-.719 3.327 0 4.99 1.636 4.99 4.91zm78.437-6.987v-10.814h-8.742v11.133zm8.66 7.263h-8.742v-1.397c-2.073.321-4.149.64-6.224.958-2.714.399-4.777.599-6.186.599-3.326 0-4.988-1.636-4.988-4.908v-14.528c0-3.325 1.716-4.988 5.148-4.988h12.332v-9.257h-8.742v5.745h-8.26v-7.543c0-3.325 1.716-4.988 5.148-4.988h15.444c3.38 0 5.07 1.663 5.07 4.988zm51.001 0h-9.059v-32.685l-8.58.16v32.525h-9.1v-32.685l-8.578.16v32.525h-9.14V98.975h9.14v1.476c2.126-.346 4.242-.692 6.345-1.038 2.58-.398 4.723-.598 6.424-.598 2.103 0 3.46.598 4.072 1.796 2.233-.346 4.468-.706 6.704-1.078 2.953-.478 5.213-.718 6.784-.718 3.325 0 4.988 1.636 4.988 4.909zM89.381 78.025c.23 0 .507-.034.83-.105.83-.184 1.29-.588 1.381-1.208l.174-1.105c.413-2.143.62-3.663.62-4.562 0-.39-.046-.586-.136-.586-.207 0-.98 1.345-2.315 4.041-.83 1.727-1.245 2.81-1.245 3.248 0 .184.232.277.692.277zm6.115 13.127c-.506 0-.99-.23-1.45-.69-.76-.83-1.308-1.883-1.64-3.162a31.407 31.407 0 0 1-.744-3.68c-.14-.875-.283-1.583-.432-2.124-.15-.54-.351-.812-.604-.812-1.083 0-1.97.115-2.66.345-.692.231-1.152.842-1.382 1.831-.07.323-.128.75-.173 1.279-.253 1.888-.519 2.924-.795 3.11a1.01 1.01 0 0 1-.622.206c-.346 0-.726-.15-1.14-.448-.782-.53-1.174-1.187-1.174-1.968 0-.37.086-.784.259-1.246.172-.46.259-.806.259-1.037 0-.252-.126-.379-.38-.379-.208 0-.646.144-1.312.431-.67.29-1.095.432-1.28.432-.344 0-.684-.201-1.02-.604a2.09 2.09 0 0 1-.5-1.364c0-.53.294-.939.88-1.227.589-.286 1.354-.524 2.3-.709 1.612-.344 2.693-.77 3.246-1.279l7.255-15.164c.623-1.22 1.543-1.832 2.764-1.832.437 0 .899.071 1.381.208.807.276 1.21.69 1.21 1.243 0 .484-.115 1.084-.346 1.796-1.796 6.635-2.694 12.001-2.694 16.099 0 4.261.54 7.302 1.624 9.12.23.37.345.634.345.796 0 .184-.127.368-.38.553a1.334 1.334 0 0 1-.795.276"/><path d="M102.959 90.15c-.185 0-.369-.045-.553-.138-.991-.439-1.647-1.083-1.97-1.935-.553-1.473-.83-3.788-.83-6.943 0-3.617.486-8.038 1.453-13.266.045-.323.069-.564.069-.727 0-.207-.093-.31-.277-.31-.368 0-.795.103-1.277.31-.623.255-1.464.381-2.523.381-.437 0-.91-.414-1.416-1.244-.207-.346-.312-.668-.312-.968 0-.576.463-.92 1.383-1.037l4.456-.585c.53-.07.886-.427 1.072-1.07l2.348-8.225c.254-.897.702-1.345 1.348-1.345.206 0 .448.045.725.137.899.345 1.348.853 1.348 1.52 0 .23-.057.507-.173.83-.438 1.174-1.002 2.845-1.694 5.009-.414 1.268-.621 1.992-.621 2.174.023.392.345.588.967.588l1.901-.034c.436 0 .943.034 1.52.104.576.07 1.244.346 2.003.83.761.483 1.152 1.002 1.176 1.555 0 .23-.059.472-.174.724-.185.347-.414.519-.692.519-.276 0-.586-.092-.93-.276-.602-.299-1.579-.45-2.938-.45-2.326 0-3.57.183-3.73.554a3.239 3.239 0 0 0-.243.69 67.284 67.284 0 0 0-1.589 14.648c0 1.796.104 3.268.312 4.423.137.76.458 1.507.966 2.244.116.161.172.299.172.415 0 .138-.056.286-.172.45-.23.276-.598.424-1.105.448z"/><path d="M109.35 78.646c.598-.415 1.174-1.139 1.726-2.177.83-1.52 1.244-2.463 1.244-2.834 0-.182-.114-.276-.345-.276a.46.46 0 0 0-.38.175c-1.727 2.947-2.591 4.537-2.591 4.765 0 .186.115.3.346.347zm1.312 7.255c-3.5 0-5.251-1.624-5.251-4.871 0-.299.064-.98.189-2.039.127-1.06.616-2.44 1.468-4.145 1.544-3.041 3.191-4.561 4.942-4.561 1.426 0 2.509.714 3.246 2.142.231.439.346.9.346 1.383 0 .599-.172 1.221-.518 1.865-1.981 2.924-3.846 4.802-5.596 5.631-.622.299-.933.61-.933.932 0 .14.023.276.068.416.208.736.623 1.104 1.245 1.104.92 0 2.152-.564 3.695-1.692 1.013-.736 1.74-1.301 2.177-1.693.554-.551.991-.828 1.314-.828.16 0 .322.057.484.172.252.232.378.518.378.865 0 .368-.234.91-.708 1.621-.47.715-1.244 1.476-2.314 2.282-1.072.805-2.032 1.254-2.884 1.346-.484.047-.934.07-1.348.07z"/><path d="M121.371 87.836c-1.751 0-2.88-.84-3.385-2.524-.323-1.012-.484-2.244-.484-3.695 0-2.44.489-5.521 1.469-9.242.979-3.72 1.952-7.432 2.919-11.142.229-.874.702-1.312 1.416-1.312.208 0 .437.046.69.139.554.208.83.585.83 1.139 0 .254-.046.553-.138.9-2.696 10.318-4.042 17.32-4.042 21.004 0 1.726.31 2.59.933 2.59.805 0 2.499-1.208 5.079-3.626.021 0 .033-.011.033-.036.253-.23.519-.356.795-.38.161 0 .322.069.484.209.16.137.242.31.242.517 0 .23-.082.484-.242.76-1.843 3.13-4.042 4.699-6.599 4.699z"/><path d="M130.976 72.704l-.484-.035c-.645-.137-.991-.564-1.037-1.277V70.7c0-.83.369-2.164 1.106-4.008l.172-.484c.184-.437.531-.67 1.036-.69.232 0 .462.046.692.137.783.346 1.186.76 1.21 1.242 0 .508-.588 2.214-1.763 5.115-.207.46-.517.69-.932.69zm-1.105 13.921h-.104c-1.175 0-1.808-.795-1.902-2.381a39.843 39.843 0 0 1-.068-2.283c0-2.784.278-5.364.83-7.737.16-.668.6-1.002 1.313-1.002 1.243 0 1.865.496 1.865 1.484 0 .278-.024.532-.069.76a60.491 60.491 0 0 0-1.071 8.915c0 .255.028.483.086.69.058.209.086.426.086.658 0 .183-.017.367-.052.552-.034.183-.338.299-.914.344m7.115-7.979c.599-.415 1.175-1.139 1.728-2.177.828-1.52 1.244-2.463 1.244-2.834 0-.182-.116-.276-.345-.276a.455.455 0 0 0-.38.175c-1.728 2.947-2.592 4.537-2.592 4.765 0 .186.115.3.345.347zm1.314 7.255c-3.502 0-5.252-1.624-5.252-4.871 0-.299.064-.98.19-2.039.127-1.06.615-2.44 1.468-4.145 1.543-3.041 3.19-4.561 4.94-4.561 1.428 0 2.51.714 3.247 2.142.232.439.347.9.347 1.383 0 .599-.174 1.221-.519 1.865-1.981 2.924-3.847 4.802-5.596 5.631-.621.299-.933.61-.933.932 0 .14.022.276.069.416.207.736.623 1.104 1.244 1.104.921 0 2.153-.564 3.696-1.692 1.013-.736 1.739-1.301 2.177-1.693.552-.551.99-.828 1.312-.828.16 0 .323.057.484.172.254.232.38.518.38.865 0 .368-.236.91-.708 1.621-.472.715-1.244 1.476-2.314 2.282-1.072.805-2.034 1.254-2.886 1.346-.484.047-.932.07-1.346.07z"/><path d="M147.247 85.693c-.668 0-1.244-.22-1.727-.654-.255-.256-.381-.599-.381-1.038.529-4.697 1.037-8.58 1.52-11.644.116-.644.461-.966 1.036-.966 1.406 0 2.108.634 2.108 1.901 0 .23-.058.54-.172.93a4.838 4.838 0 0 0-.208 1.314c0 .347.046.519.138.519.07 0 .15-.091.242-.278.506-1.105 1.452-1.956 2.833-2.556.437-.206.875-.31 1.312-.31.392 0 .715.206.968.622.139.207.207.392.207.554 0 .276-.264.54-.794.794a2.031 2.031 0 0 0-.345.207c-2.741 2.097-4.539 5.09-5.391 8.981-.253 1.082-.702 1.624-1.346 1.624z"/></g><path d="M321.929 208.544H.669V.669h321.26z" stroke="#1d1d1b" stroke-miterlimit="10" stroke-width=".25"/></svg>
